X: 4141
T: The RED PLAID
R: Strathspey.
%R: strathspey
B: James Kerr "Merry Melodies" v.4 p.17 #141
Z: 2016 John Chambers <jc:trillian.mit.edu>
M: C
L: 1/16
K: Am
|:\
EA3 A3B c4 c3e | d3cB3A G3AB3G |\
EA3 A3B c4 c3d | e3a edcB (cA3) A4 :|
|:\
ea3 a3g ea3 a3e | dg3 g3e dg3 g3d |\
ea3 a3g ea3 a3e | g3d edcB (cA3) A4 :|

%%sep 1 1 500
%%sep 1 1 500

